X: 1
T: Highlander's Farewell
C: trad.
R: reel
S: https://www.cdss.org/images/newsletter_archives/dances/summer_2014_highland_farewell.pdf
Z: 2022 John Chambers <jc:trillian.mit.edu>
Z: from transcription by Ethan Hazzard-Watkins, learned from Ruthie Dornfeld 
N: from the playing of Emmett Lundy of Grayson County, Virginia (1864-1953);
M: C|
L: 1/8
K: Ador
|:\
"Am"A,4 A,4 | B,G, A,z A,4 | A,G,A,G, A,B,DE | "G"GDEG EDB,G, |
"Am"A,4 A,4 | B,G, A,z B,4 | "Am"A,B,DE GDEG | "G"EDB,G, "Am"A,4 :|
|:\
"Am"a4 a2ba | "G"geag d-d2z | "Em"e4 e2ef | gfed BAG2 |
"Am"a4 a2ba | "G"geag d-d2z | "Em"e3f gedc | BAGB "Am"A4 :|
